X:1
T:Chad, 75.75 D
T:Chad, 75.75 D
T:Montgomery Elgar Belue, 1922
T:Public Domain Courtesy of the Cyber Hymnal™
C:Montgomery Elgar Belue, 1922
Z:Public Domain
Z:Courtesy of the Cyber Hymnal™
%%score ( 1 2 ) ( 3 4 )
L:1/8
Q:1/4=105
M:6/8
K:D
V:1 treble 
V:2 treble 
V:3 bass 
V:4 bass 
V:1
 [DF]2 [DE] [A,D]2 [DF] | [FA]2 [GB] [FA]2 z | [Fd]2 [GB] [FA]2 [DF] | [CE]3- [CE]2 z | %4
 [DF]2 [DE] [A,D]2 [DF] | [FA]2 [GB] [FA]2 z | [GB]2 [Gd] [Ec]2 [Gc] | [Fd]3- [Fd]2 z | %8
 [FA]2 [DF] [A,D]2 [DF] | [FA]2 A [GB]2 z | [Fd]2 [GB] [FA]2 [DF] | E3- [CE]2 z | %12
 [DF]2 [DE] [A,D]2 [DF] | [FA]2 [GB] [FA]2 z | [GB]2 [Gd] [Ec]2 [Gc] | d3- [Fd]2 z |] %16
V:2
 x6 | x6 | x6 | x6 | x6 | x6 | x6 | x6 | x6 | x2 A x3 | x6 | C2 C x3 | x6 | x6 | x6 | F2 G x3 |] %16
V:3
 [D,A,]2 [D,G,] [D,F,]2 [D,A,] | [D,D]2 [D,D] [D,D]2 z | [D,A,]2 [D,D] [D,D]2 [D,A,] | %3
 [A,,A,]3- [A,,A,]2 z | [D,A,]2 [D,G,] [D,F,]2 [D,A,] | [D,D]2 [D,D] [D,D]2 z | %6
 [G,D]2 [G,B,] A,2 [A,,A,] | [D,A,]3- [D,A,]2 z | [D,D]2 [D,A,] [D,F,]2 [D,A,] | %9
 [D,D]2 [F,D] [G,D]2 z | [D,D]2 [D,D] [D,D]2 [D,A,] | ([A,,A,]2 [A,,A,] [A,,A,]2) z | %12
 [D,A,]2 [D,G,] [D,F,]2 [D,A,] | [D,D]2 [D,D] [D,D]2 z | [G,D]2 [G,B,] A,2 [A,,A,] | %15
 (A,2 B, [D,A,]2) z |] %16
V:4
 x6 | x6 | x6 | x6 | x6 | x6 | x3 A,2 x | x6 | x6 | x6 | x6 | x6 | x6 | x6 | x3 A,2 x | D,3- x3 |] %16

